static/logo.svg

<svg width="450" height="48" viewBox="0 0 450 48" fill="none" xmlns="http://www.w3.org/2000/svg">
<g clip-path="url(#clip0)">
<path d="M28.6123 3.95703V34.6366H21.0058V12.0706H7.69441V34.7634H0.0878906V3.95703H28.6123Z" fill="black"/>
<path d="M66.5183 12.7047C67.4057 14.7331 67.786 16.8883 67.786 19.2971C67.786 21.7058 67.4057 23.861 66.5183 25.8894C65.6309 27.9178 64.4899 29.5659 63.0954 30.9604C61.7008 32.3549 60.0528 33.4959 58.1511 34.2565C56.2495 35.0172 54.3479 35.3975 52.3195 35.3975C50.0375 35.3975 48.1359 35.0172 46.4878 34.2565C44.8397 33.4959 43.8255 32.4817 43.3184 31.3407V47.1876H35.7119V3.95725H43.0649V7.12663C43.572 5.98565 44.713 4.97145 46.361 4.2108C48.0091 3.45015 49.9107 3.06982 52.1927 3.06982C54.2211 3.06982 56.2495 3.45015 58.1511 4.2108C60.0528 5.09823 61.7008 6.23921 63.0954 7.63373C64.4899 9.02826 65.7576 10.8031 66.5183 12.7047ZM59.5457 22.5932C59.926 21.579 60.1795 20.438 60.1795 19.2971C60.1795 18.1561 59.926 17.0151 59.5457 16.0009C59.1653 14.9867 58.5315 14.0993 57.7708 13.4654C57.0102 12.7047 56.1227 12.1976 54.9818 11.8173C53.8408 11.437 52.6998 11.1834 51.432 11.1834C49.5304 11.1834 47.8823 11.5638 46.361 12.3244C44.8397 13.0851 43.9523 14.0993 43.4452 15.2402V23.3539C43.9523 24.4948 44.8397 25.509 46.361 26.2697C47.8823 27.0303 49.5304 27.4107 51.432 27.4107C52.6998 27.4107 53.9676 27.1571 54.9818 26.7768C56.1227 26.3965 57.0102 25.7626 57.7708 25.1287C58.5315 24.4948 59.1653 23.6074 59.5457 22.5932Z" fill="black"/>
<path d="M80.718 3.95703V22.3394L94.6633 3.95703H102.27V34.6366H94.7901V16.2542L80.8448 34.6366H73.2383V3.95703H80.718Z" fill="black"/>
<path d="M139.921 19.2969C139.921 21.5788 139.541 23.734 138.654 25.7624C137.766 27.7908 136.625 29.4389 135.104 30.8334C133.582 32.228 131.934 33.3689 129.906 34.2564C128.004 35.017 125.849 35.5241 123.694 35.5241C121.539 35.5241 119.384 35.1438 117.482 34.2564C115.58 33.4957 113.806 32.3547 112.284 30.8334C110.763 29.3121 109.622 27.664 108.735 25.7624C107.847 23.734 107.467 21.5788 107.467 19.2969C107.467 17.0149 107.847 14.8597 108.735 12.8313C109.622 10.8029 110.763 9.15486 112.284 7.63356C113.806 6.23903 115.454 5.09805 117.482 4.21062C119.384 3.44997 121.539 2.94287 123.694 2.94287C125.849 2.94287 128.004 3.3232 129.906 4.21062C131.808 4.97128 133.582 6.11225 135.104 7.63356C136.625 9.02808 137.766 10.8029 138.654 12.8313C139.414 14.8597 139.921 17.0149 139.921 19.2969ZM115.707 16.0007C115.327 17.0149 115.073 18.1559 115.073 19.2969C115.073 20.4379 115.327 21.5788 115.707 22.593C116.088 23.6072 116.721 24.4947 117.482 25.1285C118.243 25.8892 119.13 26.3963 120.271 26.7766C121.285 27.1569 122.426 27.4105 123.694 27.4105C124.835 27.4105 125.976 27.1569 126.99 26.7766C128.004 26.3963 128.892 25.7624 129.652 25.1285C130.413 24.3679 131.047 23.6072 131.554 22.593C132.061 21.5788 132.188 20.5646 132.188 19.2969C132.188 18.1559 131.934 17.0149 131.554 16.0007C131.047 14.9865 130.54 14.0991 129.652 13.4652C128.892 12.7046 128.004 12.1975 126.99 11.8171C125.976 11.4368 124.835 11.1833 123.694 11.1833C122.553 11.1833 121.412 11.4368 120.271 11.8171C119.257 12.1975 118.243 12.8313 117.482 13.4652C116.848 14.0991 116.214 14.9865 115.707 16.0007Z" fill="black"/>
<path d="M175.926 12.7047C176.813 14.7331 177.193 16.8883 177.193 19.2971C177.193 21.7058 176.813 23.861 175.926 25.8894C175.038 27.9178 173.897 29.5659 172.503 30.9604C171.108 32.3549 169.46 33.4959 167.558 34.2565C165.657 35.0172 163.755 35.3975 161.727 35.3975C159.445 35.3975 157.543 35.0172 155.895 34.2565C154.247 33.4959 153.233 32.4817 152.726 31.3407V47.1876H145.119V3.95725H152.472V7.12663C152.979 5.98565 154.12 4.97145 155.768 4.2108C157.416 3.45015 159.318 3.06982 161.6 3.06982C163.628 3.06982 165.657 3.45015 167.558 4.2108C169.46 4.97145 171.108 6.11243 172.503 7.50696C173.897 8.90149 175.038 10.8031 175.926 12.7047ZM168.953 22.5932C169.333 21.579 169.587 20.438 169.587 19.2971C169.587 18.1561 169.333 17.0151 168.953 16.0009C168.573 14.9867 167.939 14.0993 167.178 13.4654C166.417 12.7047 165.53 12.1976 164.389 11.8173C163.248 11.437 162.107 11.1834 160.839 11.1834C158.938 11.1834 157.29 11.5638 155.768 12.3244C154.247 13.0851 153.36 14.0993 152.852 15.2402V23.3539C153.36 24.4948 154.247 25.509 155.768 26.2697C157.29 27.0303 158.938 27.4107 160.839 27.4107C162.107 27.4107 163.375 27.1571 164.389 26.7768C165.53 26.3965 166.417 25.7626 167.178 25.1287C167.812 24.4948 168.446 23.6074 168.953 22.5932Z" fill="black"/>
<path d="M189.997 3.95703V22.3394L203.943 3.95703H211.549V34.6366H204.069V16.2542L190.124 34.6366H182.518V3.95703H189.997Z" fill="black"/>
<path d="M242.99 12.0706H233.482V34.7634H225.875V12.0706H216.367V3.95703H242.863V12.0706H242.99Z" fill="black"/>
<path d="M263.019 27.9175C264.921 27.9175 266.696 27.5371 268.471 26.9033C270.246 26.2694 271.513 25.2552 272.401 24.1142L274.683 29.9459C273.669 31.5939 272.147 32.8617 270.119 33.8759C268.09 34.8901 265.555 35.524 262.639 35.524C260.357 35.524 258.075 35.1437 256.174 34.383C254.272 33.6224 252.37 32.6081 250.976 31.2136C249.455 29.8191 248.314 28.171 247.553 26.1426C246.665 24.1142 246.285 21.959 246.285 19.4235C246.285 17.2683 246.665 15.1132 247.426 13.2115C248.187 11.3099 249.201 9.53505 250.596 8.01375C251.99 6.49245 253.638 5.35147 255.54 4.46404C257.441 3.57661 259.597 3.19629 262.005 3.19629C264.287 3.19629 266.316 3.70339 268.217 4.59082C270.119 5.47824 271.64 6.61922 272.908 8.14052C274.176 9.66183 275.19 11.3099 275.951 13.3383C276.711 15.2399 276.965 17.2683 276.965 19.4235C276.965 19.8038 276.965 20.3109 276.965 20.818C276.965 21.3251 276.838 21.7055 276.838 22.0858H254.018C254.399 24.1142 255.413 25.6355 256.934 26.5229C258.709 27.4104 260.738 27.9175 263.019 27.9175ZM269.358 15.8738C269.105 14.2257 268.344 12.958 266.95 12.1973C265.555 11.3099 264.034 10.9296 262.132 10.9296C260.23 10.9296 258.582 11.3099 257.188 12.1973C255.667 13.0848 254.779 14.3525 254.526 15.8738H269.358Z" fill="black"/>
<path d="M307.01 12.0706H297.502V34.7634H289.896V12.0706H280.388V3.95703H306.884V12.0706H307.01Z" fill="black"/>
<path d="M321.718 10.2957C320.957 10.2957 320.323 10.4225 319.689 10.676C319.056 10.9296 318.548 11.1831 317.915 11.5635C317.407 11.9438 316.9 12.3241 316.52 12.8312C316.14 13.3383 315.759 13.8454 315.379 14.3525L312.717 9.66183C312.97 8.7744 313.351 7.88697 313.858 7.12632C314.365 6.36567 315.126 5.60502 315.886 5.09792C316.647 4.46404 317.661 4.08372 318.675 3.70339C319.689 3.32306 320.83 3.19629 322.098 3.19629C323.746 3.19629 325.141 3.44984 326.282 3.95694C327.549 4.46404 328.564 5.09792 329.324 5.98534C330.212 6.87277 330.846 7.88697 331.226 9.02795C331.86 10.1689 332.113 11.3099 332.113 12.7044C332.113 13.8454 331.987 14.8596 331.733 15.747C331.48 16.6345 331.099 17.5219 330.592 18.4093C330.085 19.2967 329.451 20.1842 328.69 21.0716C327.93 21.959 327.042 22.9732 326.155 24.1142L323.112 27.5371H332.747V34.5098H312.97V29.1852L321.718 19.6771C322.352 19.0432 322.859 18.4093 323.366 17.9022C323.873 17.3951 324.253 16.888 324.507 16.3809C324.76 15.8738 325.014 15.4935 325.141 14.9864C325.268 14.6061 325.394 14.099 325.394 13.4651C325.394 12.5777 325.014 11.817 324.38 11.1831C323.746 10.5493 322.859 10.2957 321.718 10.2957Z" fill="#F32735"/>
<path d="M345.803 4.46471C347.705 3.70406 349.86 3.32373 352.015 3.32373C354.171 3.32373 356.326 3.70406 358.227 4.46471C360.129 5.22536 361.904 6.36634 363.425 7.76086C364.946 9.15539 366.087 10.9302 366.975 12.8319C367.862 14.8603 368.243 17.0155 368.243 19.2974C368.243 21.7061 367.862 23.8613 366.975 25.763C366.087 27.7914 364.946 29.4394 363.425 30.834C361.904 32.2285 360.256 33.3695 358.227 34.1301C356.199 34.8908 354.171 35.2711 352.015 35.2711C349.86 35.2711 347.705 34.8908 345.803 34.1301C343.775 33.3695 342.127 32.2285 340.606 30.834C339.084 29.4394 337.943 27.6646 337.056 25.763C336.168 23.8613 335.788 21.5794 335.788 19.2974C335.788 16.8887 336.168 14.7335 337.056 12.8319C337.943 10.8035 339.084 9.15539 340.606 7.76086C342.127 6.23956 343.902 5.22536 345.803 4.46471ZM352.015 28.2985C353.283 28.2985 354.551 28.0449 355.692 27.6646C356.833 27.1575 357.847 26.6504 358.734 25.763C359.622 25.0023 360.256 23.9881 360.763 22.9739C361.27 21.8329 361.523 20.6919 361.523 19.2974C361.523 18.0297 361.27 16.7619 360.763 15.6209C360.256 14.48 359.622 13.5925 358.734 12.7051C357.847 11.9444 356.833 11.3106 355.692 10.8035C354.551 10.2964 353.283 10.1696 352.015 10.1696C350.621 10.1696 349.48 10.4231 348.212 10.8035C347.071 11.3106 346.057 11.8177 345.169 12.7051C344.282 13.4658 343.648 14.48 343.141 15.6209C342.634 16.7619 342.38 17.9029 342.38 19.2974C342.38 20.6919 342.634 21.8329 343.141 22.9739C343.648 24.1149 344.282 25.0023 345.169 25.763C346.057 26.5236 347.071 27.1575 348.212 27.6646C349.48 28.1717 350.621 28.2985 352.015 28.2985Z" fill="#F32735"/>
<path d="M379.02 28.4247C380.414 28.4247 381.555 28.0443 382.316 27.4105C383.203 26.7766 383.584 25.8891 383.584 24.7482C383.584 23.734 383.203 22.9733 382.443 22.3394C381.682 21.7056 380.668 21.452 379.4 21.452C378.512 21.452 377.752 21.5788 377.118 21.7056C376.484 21.9591 375.977 22.0859 375.723 22.3394L374.709 17.522L380.034 10.9297H371.54V3.95703H388.781V9.02804L383.584 15.4936C384.344 15.6204 385.105 16.0007 385.865 16.381C386.626 16.7613 387.387 17.3952 388.147 18.1559C388.908 18.9165 389.415 19.8039 389.795 20.9449C390.176 22.0859 390.429 23.3536 390.429 25.0017C390.429 26.523 390.176 27.7908 389.669 29.0585C389.162 30.3263 388.401 31.4673 387.387 32.4815C386.373 33.4957 385.232 34.2563 383.837 34.7634C382.443 35.2705 380.921 35.6508 379.146 35.6508C377.879 35.6508 376.738 35.5241 375.723 35.2705C374.709 35.017 373.822 34.6366 373.061 34.1295C372.301 33.6224 371.667 33.1153 371.16 32.6082C370.652 31.9744 370.272 31.4673 370.019 30.8334L371.54 25.1285C372.427 26.1427 373.441 26.9034 374.582 27.664C375.47 28.0443 377.118 28.4247 379.02 28.4247Z" fill="#F32735"/>
<path d="M403.233 4.46471C405.135 3.70406 407.29 3.32373 409.445 3.32373C411.6 3.32373 413.755 3.70406 415.657 4.46471C417.559 5.22536 419.333 6.36634 420.855 7.76086C422.376 9.15539 423.517 10.9302 424.404 12.8319C425.292 14.8603 425.672 17.0155 425.672 19.2974C425.672 21.7061 425.292 23.8613 424.404 25.763C423.517 27.7914 422.376 29.4394 420.855 30.834C419.333 32.2285 417.685 33.3695 415.657 34.1301C413.629 34.8908 411.6 35.2711 409.445 35.2711C407.29 35.2711 405.135 34.8908 403.233 34.1301C401.205 33.3695 399.557 32.2285 398.035 30.834C396.514 29.4394 395.373 27.6646 394.486 25.763C393.598 23.8613 393.218 21.5794 393.218 19.2974C393.218 16.8887 393.598 14.7335 394.486 12.8319C395.373 10.8035 396.514 9.15539 398.035 7.76086C399.557 6.23956 401.331 5.22536 403.233 4.46471ZM409.445 28.2985C410.713 28.2985 411.98 28.0449 413.121 27.6646C414.262 27.1575 415.277 26.6504 416.164 25.763C417.051 25.0023 417.685 23.9881 418.192 22.9739C418.7 21.8329 418.953 20.6919 418.953 19.2974C418.953 18.0297 418.7 16.7619 418.192 15.6209C417.685 14.48 417.051 13.5925 416.164 12.7051C415.277 11.9444 414.262 11.3106 413.121 10.8035C411.98 10.2964 410.713 10.1696 409.445 10.1696C408.05 10.1696 406.909 10.4231 405.642 10.8035C404.501 11.3106 403.487 11.8177 402.599 12.7051C401.712 13.4658 401.078 14.48 400.571 15.6209C400.064 16.7619 399.81 17.9029 399.81 19.2974C399.81 20.6919 400.064 21.8329 400.571 22.9739C401.078 24.1149 401.712 25.0023 402.599 25.763C403.487 26.5236 404.501 27.1575 405.642 27.6646C406.909 28.1717 408.177 28.2985 409.445 28.2985Z" fill="#F32735"/>
<path d="M442.026 -1.24023H435.814L428.715 11.057H434.927L442.026 -1.24023Z" fill="#F32735"/>
<path d="M435.815 -1.24023H442.027L449 11.057H442.915L435.815 -1.24023Z" fill="#F32735"/>
</g>
<defs>
<clipPath id="clip0">
<rect width="449.684" height="48" fill="white"/>
</clipPath>
</defs>
</svg>

<svg width="443" height="48" fill="none" xmlns="http://www.w3.org/2000/svg"><path d="M28.61 3.96v30.68h-7.6V12.07H7.69v22.7H.1V3.95H28.6zM66.52 12.7a16.1 16.1 0 011.27 6.6 16.1 16.1 0 01-4.7 11.66 14.7 14.7 0 01-4.94 3.3c-1.9.76-3.8 1.14-5.83 1.14-2.28 0-4.18-.38-5.83-1.14a6.02 6.02 0 01-3.17-2.92V47.2h-7.6V3.96h7.34v3.17c.51-1.14 1.65-2.16 3.3-2.92a13.67 13.67 0 015.83-1.14c2.03 0 4.06.38 5.96 1.14 1.9.89 3.55 2.03 4.95 3.42 1.39 1.4 2.66 3.17 3.42 5.07zm-6.97 9.9c.38-1.02.63-2.16.63-3.3 0-1.14-.25-2.28-.63-3.3a6.12 6.12 0 00-1.78-2.53 6.8 6.8 0 00-2.79-1.65 11.05 11.05 0 00-8.62.5 5.9 5.9 0 00-2.91 2.92v8.11a5.9 5.9 0 002.91 2.92 11.05 11.05 0 008.62.5 8.55 8.55 0 002.8-1.64 6.12 6.12 0 001.77-2.54zM80.72 3.96v18.38L94.66 3.96h7.61v30.68h-7.48V16.25L80.84 34.64h-7.6V3.96h7.48zM139.92 19.3c0 2.28-.38 4.43-1.27 6.46a14.64 14.64 0 01-3.55 5.07 18.52 18.52 0 01-5.2 3.43c-1.9.76-4.05 1.26-6.2 1.26-2.16 0-4.32-.38-6.22-1.26-1.9-.76-3.67-1.9-5.2-3.43a17.45 17.45 0 01-3.55-5.07 15.9 15.9 0 01-1.26-6.46 15.9 15.9 0 014.81-11.67 18.52 18.52 0 015.2-3.42c1.9-.76 4.06-1.27 6.21-1.27 2.16 0 4.31.38 6.22 1.27 1.9.76 3.67 1.9 5.2 3.42a15.16 15.16 0 013.54 5.2 18.36 18.36 0 011.27 6.47zM115.71 16a9.53 9.53 0 00-.64 3.3c0 1.14.26 2.28.64 3.3a6.13 6.13 0 001.77 2.53 6.8 6.8 0 002.8 1.65c1 .38 2.15.63 3.41.63 1.14 0 2.29-.25 3.3-.63a9.42 9.42 0 002.66-1.65 9.49 9.49 0 001.9-2.54c.51-1.01.64-2.03.64-3.3 0-1.13-.26-2.28-.64-3.29a6.38 6.38 0 00-1.9-2.53 7.24 7.24 0 00-2.66-1.65 9.52 9.52 0 00-3.3-.64c-1.14 0-2.28.26-3.42.64a10.14 10.14 0 00-2.79 1.65 9.94 9.94 0 00-1.77 2.53zM175.93 12.7a16.1 16.1 0 011.26 6.6 16.1 16.1 0 01-4.69 11.66 14.7 14.7 0 01-4.94 3.3 15.4 15.4 0 01-5.83 1.14c-2.28 0-4.19-.38-5.83-1.14a6.01 6.01 0 01-3.17-2.92V47.2h-7.61V3.96h7.35v3.17c.5-1.14 1.65-2.16 3.3-2.92a13.67 13.67 0 015.83-1.14c2.03 0 4.06.38 5.96 1.14 1.9.76 3.55 1.9 4.94 3.3 1.4 1.4 2.54 3.3 3.43 5.2zm-6.98 9.9c.38-1.02.64-2.16.64-3.3 0-1.14-.26-2.28-.64-3.3a6.12 6.12 0 00-1.77-2.53 6.8 6.8 0 00-2.8-1.65 11.06 11.06 0 00-8.62.5 5.9 5.9 0 00-2.9 2.92v8.11a5.9 5.9 0 002.9 2.92 11.06 11.06 0 008.63.5 8.56 8.56 0 002.79-1.64 9.94 9.94 0 001.77-2.54zM190 3.96v18.38l13.94-18.38h7.6v30.68h-7.47V16.25l-13.95 18.39h-7.6V3.96H190zM242.99 12.07h-9.5v22.7h-7.62v-22.7h-9.5V3.96h26.5v8.11h.12zM263.02 27.92c1.9 0 3.68-.38 5.45-1.02a8.49 8.49 0 003.93-2.79l2.28 5.84a10.78 10.78 0 01-4.56 3.93 16.71 16.71 0 01-7.48 1.64c-2.28 0-4.56-.38-6.47-1.14-1.9-.76-3.8-1.77-5.2-3.17a12.86 12.86 0 01-3.42-5.07 16.28 16.28 0 01-1.27-6.72 16.89 16.89 0 014.32-11.4 15.37 15.37 0 014.94-3.56 15.1 15.1 0 016.47-1.26c2.28 0 4.3.5 6.2 1.4 1.9.88 3.43 2.02 4.7 3.54a17.55 17.55 0 013.04 5.2c.76 1.9 1.01 3.93 1.01 6.08v1.4c0 .5-.12.89-.12 1.27h-22.82a6.23 6.23 0 002.91 4.43c1.78.89 3.8 1.4 6.09 1.4zm6.34-12.05a4.74 4.74 0 00-2.41-3.67 8.55 8.55 0 00-4.82-1.27c-1.9 0-3.55.38-4.94 1.27a5.17 5.17 0 00-2.66 3.67h14.83zM307.01 12.07h-9.5v22.7h-7.61v-22.7h-9.51V3.96h26.5v8.11h.12z" fill="#343434"/><path d="M321.72 10.3c-.76 0-1.4.12-2.03.38-.63.25-1.14.5-1.77.88-.51.38-1.02.76-1.4 1.27l-1.14 1.52-2.66-4.69a7.72 7.72 0 013.17-4.56c.76-.64 1.77-1.02 2.79-1.4a9.71 9.71 0 013.42-.5c1.65 0 3.04.25 4.18.76a7.55 7.55 0 013.04 2.03 7.7 7.7 0 011.9 3.04c.64 1.14.9 2.28.9 3.67 0 1.15-.13 2.16-.39 3.05-.25.88-.63 1.77-1.14 2.66-.5.89-1.14 1.77-1.9 2.66-.76.89-1.65 1.9-2.54 3.04l-3.04 3.43h9.64v6.97h-19.78v-5.32l8.75-9.51c.63-.64 1.14-1.27 1.65-1.78.5-.5.88-1.01 1.14-1.52.25-.5.5-.89.63-1.4.13-.37.25-.88.25-1.51 0-.9-.38-1.65-1.01-2.29-.63-.63-1.52-.88-2.66-.88zM345.8 4.46a16.9 16.9 0 016.21-1.14c2.16 0 4.32.38 6.22 1.14 1.9.77 3.67 1.9 5.2 3.3a15.93 15.93 0 013.55 5.07 15.91 15.91 0 011.26 6.47c0 2.4-.38 4.56-1.26 6.46a15.79 15.79 0 01-8.75 8.37 17.38 17.38 0 01-12.43 0 15.8 15.8 0 01-8.74-8.37 15.49 15.49 0 01-1.27-6.46c0-2.41.38-4.57 1.27-6.47a14.61 14.61 0 013.55-5.07 15.08 15.08 0 015.2-3.3zm6.21 23.84c1.27 0 2.54-.26 3.68-.64a9.47 9.47 0 003.04-1.9 8.67 8.67 0 002.79-6.47 9.1 9.1 0 00-2.79-6.58c-.88-.77-1.9-1.4-3.04-1.9a9 9 0 00-3.68-.64c-1.39 0-2.53.25-3.8.63a9.49 9.49 0 00-3.04 1.9 8.04 8.04 0 00-2.03 2.92 8.67 8.67 0 00-.76 3.68 8.67 8.67 0 002.79 6.46c.89.76 1.9 1.4 3.04 1.9 1.27.51 2.41.64 3.8.64zM379.02 28.42c1.4 0 2.54-.38 3.3-1.01.88-.63 1.26-1.52 1.26-2.66 0-1.02-.38-1.78-1.14-2.41a4.58 4.58 0 00-3.04-.89c-.89 0-1.65.13-2.28.26-.64.25-1.14.38-1.4.63l-1.01-4.82 5.32-6.59h-8.49V3.96h17.24v5.07l-5.2 6.46a9.28 9.28 0 014.56 2.66 6.8 6.8 0 011.66 2.8 12.36 12.36 0 01-.13 8.1 10.13 10.13 0 01-5.83 5.71c-1.4.51-2.92.9-4.7.9-1.26 0-2.4-.14-3.42-.39a8.46 8.46 0 01-2.66-1.14c-.76-.5-1.4-1.01-1.9-1.52a6.94 6.94 0 01-1.14-1.78l1.52-5.7a14.7 14.7 0 003.04 2.53c.89.38 2.54.76 4.44.76zM403.23 4.46a16.9 16.9 0 016.21-1.14c2.16 0 4.31.38 6.22 1.14 1.9.77 3.67 1.9 5.2 3.3a15.91 15.91 0 013.54 5.07 15.9 15.9 0 011.27 6.47c0 2.4-.38 4.56-1.27 6.46a15.81 15.81 0 01-8.75 8.37 17.39 17.39 0 01-12.42 0 15.81 15.81 0 01-8.74-8.37 15.49 15.49 0 01-1.27-6.46c0-2.41.38-4.57 1.27-6.47a14.62 14.62 0 013.55-5.07 15.09 15.09 0 015.2-3.3zm6.21 23.84c1.27 0 2.54-.26 3.68-.64a9.47 9.47 0 003.04-1.9 8.66 8.66 0 002.79-6.47 9.08 9.08 0 00-2.79-6.58c-.88-.77-1.9-1.4-3.04-1.9a9 9 0 00-3.68-.64c-1.39 0-2.53.25-3.8.63a9.49 9.49 0 00-3.04 1.9 8.04 8.04 0 00-2.03 2.92 8.67 8.67 0 00-.76 3.68 8.67 8.67 0 002.79 6.46c.89.76 1.9 1.4 3.04 1.9a10 10 0 003.8.64z" fill="#344887"/></svg>
